X: 1
T:Gathering red roses
C:anon.
O:Hungary
Z:Transcribed by Frank Nordberg - http://www.musicaviva.com
M:4/4
L:1/4
K:Am
A<fed|A2A z|ec'b<a|e2e z|e>c' b<a|b<afd|a<aed|A2A z|]
